cssgg/gender-female.svg

<svg
  width="24"
  height="24"
  viewBox="0 0 24 24"
  fill="none"
  xmlns="http://www.w3.org/2000/svg"
>
  <path
    fill-rule="evenodd"
    clip-rule="evenodd"
    d="M12 3C9.23858 3 7 5.23858 7 8C7 10.419 8.71776 12.4367 11 12.9V15H8V17H11V21H13V17H16V15H13V12.9C15.2822 12.4367 17 10.419 17 8C17 5.23858 14.7614 3 12 3ZM9 8C9 9.65685 10.3431 11 12 11C13.6569 11 15 9.65685 15 8C15 6.34315 13.6569 5 12 5C10.3431 5 9 6.34315 9 8Z"
    fill="currentColor"
  />
</svg>

<svg viewBox="0 0 24 24" xmlns="http://www.w3.org/2000/svg"><path fill-rule="evenodd" d="M12 3C9.23 3 7 5.23 7 8c0 2.41 1.71 4.43 4 4.9V15H8v2h3v4h2v-4h3v-2h-3v-2.1c2.28-.47 4-2.481 4-4.9 0-2.77-2.24-5-5-5ZM9 8c0 1.65 1.34 3 3 3 1.65 0 3-1.35 3-3 0-1.66-1.35-3-3-3 -1.66 0-3 1.34-3 3Z"/></svg>
